X:247
T:Tune
Z:robin.beech@mcgill.ca
S:http://diduknownow.com/vids/2016/07/14/bridesmaids-perform-a-lively-irish-step-dance/
R:reel
M:4/4
L:1/8
K:C
ecGf dBg2- | g2gc eGce | fddd dedc | Bddd d2zB |
ecGf dBg2- | g2gc eGce | fdBd GfdB | fdBd c4 ::
A3A- ABcA | f3f- fdcd | BGGG GABG | g3g fdBd |1
A3A- ABcA | f3f- fdcd | BGGG GABG | fdBd c4 |2
ecGf dBg2- | g2gc eGce | fdBd GfdB | fdBd c4 |]
